X:434
T: IN GLUCKGLUCK LEB ICH
N: E1626A
O: Europa, Mitteleuropa, Deutschland, Helgoland
R: Staende -, Handwerker -, Gesellen - Lied; Trink - Lied
M: 3/4
L: 1/8
K: F
cAf | ddddfd | c2A
cdc | cBGdcB | BAA
cAf | ddddfd | c2A
cdc | cBGdcB | BAA

@@@ Tune index: 5118
